!!!SOCIAL_FUNCTION:	songs with treatment of the sick
!!!PDT:	1943
!!!OTL: No_14_The_Thunderbird_Will_Help_Me_Cure_This_Sick_Man.krn
!!!REG: British Columbia
**kern	**kern
*staff2	*staff1
=1-	=1-
*clefF4	*clefF4
*k[b-e-]	*k[b-e-]
*M2/4	*M2/4
4GG/	4c\
4GG/	12c\L
.	12B-\
.	12G\J
=2||	=2||
*M3/4	*M3/4
4GG/	4G\
4GG/	4r
4GG/	8.c\L
.	16B-\Jk
=3||	=3||
*M2/4	*M2/4
4GG/	[2c\
4r	.
=4	=4
2r	8c\L]
.	8B-\J
.	8B-\L
.	8G\J
=5	=5
2r	8B-\L
.	8G\J
.	4G\
=6	=6
2r	4G\
.	8F\
.	8r
=7	=7
2r	8F\L
.	8D\J
.	4D\
=8	=8
2r	12F\L
.	12D\
.	12BB-\J
.	8D\
.	8r
=9	=9
2r	2BB-/
=10	=10
2r	8D/L
.	8C/J
.	8C/
.	8r
=11	=11
2r	8F\L
.	8D\J
.	8D\
.	8r
=12	=12
2r	4G\
.	8G\L
.	8F\J
=13	=13
2r	4F\
.	8F\L
.	8D\J
=14	=14
2r	8F\L
.	8D\J
.	4D\
=15	=15
2r	4BB-/
.	4BB-/
=16	=16
2r	8F\L
.	8D\J
.	8D\
.	8r
=17	=17
2r	4G\
.	8G\L
.	8F\J
=18	=18
2r	4F\
.	8F\L
.	8D\J
=19	=19
2r	8F\L
.	8D\J
.	4D\
=20	=20
2r	4BB-/
.	4BB-/
=21	=21
2r	4D\
.	8D\
.	8r
==	==
*-	*-
